outputs/icons/audio_video/pause_circle_sharp.svg

<svg xmlns="http://www.w3.org/2000/svg" width="1200" height="1200" fill="none"><g clip-path="url(#a)"><path fill="#000" d="M600 100c-276 0-500 224-500 500s224 500 500 500 500-224 500-500-224-500-500-500m-50 700H450V400h100zm200 0H650V400h100z"/></g><defs><clipPath id="a"><path fill="#fff" d="M0 0h1200v1200H0z"/></clipPath></defs></svg>

<svg width="1200" height="1200" viewBox="0 0 1200 1200" fill="none" xmlns="http://www.w3.org/2000/svg"><g clip-path="url(#clip0_124_1172)"><path d="M600 100C324 100 100 324 100 600C100 876 324 1100 600 1100C876 1100 1100 876 1100 600C1100 324 876 100 600 100ZM550 800H450V400H550V800ZM750 800H650V400H750V800Z" fill="#1D1E23"/></g><defs><clipPath id="clip0_124_1172"><path width="24" fill="white" d="M0 0H1200V1200H0V0z"/></clipPath></defs></svg>
